X: 67
T: Hit and Miss (Daphne) ÿ
M:6/8
L:1/8
Q:160
S:Playford
O:Manuscript
A:English
K:G
E|G2 A B2 e|d>ef e2|B/2c/2|dBG AFD|EGF E2 E|G2 A B2 e|d>ef B/2c/2|dBG A D|EGF E2:|
|: g2 g f2 f| e>fe d B2| d>cB A2 G|G F2 G3|g2 g f2 f| e>fe d B2| d>cB A2 G| G F2 G3:|
|: dde dBG| de/2f/2g afd|B>AG F2 E|eed eBB| d>cB AEG|F>GF E2:|

